16x16/apps/libreoffice4.2-math.svg

<svg height="16" width="16" xmlns="http://www.w3.org/2000/svg"><path d="m14 15.143v-14.286c0-.475-.365-.857-.818-.857h-10.364c-.453 0-.818.382-.818.857v14.286c0 .475.365.857.818.857h10.364c.453 0 .818-.382.818-.857z" fill="#636e73"/><path d="m3 1v14h10v-9l-4.5-5zm6.897 0 3.103 3.5v-3.5h-3z" fill="#f5f5f5"/><path d="m7.5 8.5-1.1 3.9-.9-1.9h-1.5v.5h1.2l1.3 3 1.5-5h2.6v-.5zm.613 2.125 1.223 1.607-1.336 1.768h.666l.998-1.326 1.004 1.326h.664l-1.307-1.734 1.243-1.641h-.666l-.909 1.205-.914-1.205z" opacity=".5"/></svg>

<svg height="16" width="16" xmlns="http://www.w3.org/2000/svg">
    <path d="M14 15.143V.857C14 .382 13.635 0 13.182 0H2.818C2.365 0 2 .382 2 .857v14.286c0 .475.365.857.818.857h10.364c.453 0 .818-.382.818-.857z" fill="#636e73"/>
    <path d="M3 1v14h10V6L8.5 1zm6.897 0L13 4.5V1h-3z" fill="#f5f5f5"/>
    <path d="m7.5 8.5-1.1 3.9-.9-1.9H4v.5h1.2l1.3 3L8 9h2.6v-.5zm.613 2.125 1.223 1.607L8 14h.666l.998-1.326L10.668 14h.664l-1.307-1.734 1.243-1.641h-.666l-.909 1.205-.914-1.205z" opacity=".5"/>
</svg>
